X: 36166
T: Scots Lament, The
R: waltz
M: 3/4
K: Gmajor
G,A,|{A,}B,2 D2 D>E|D4 G>A|TB3 A (B/c/d)|{d}e4 d2|T{d}B3 A G2|E3 D (B,D)|E2 A,2 (A,B,)|A,4 B,>C|
D3 B, T(A,G,)|G3 A {GA}B2|(d<B) (A<G) (A<B)|{B}c4 (c/d/e)|d3 D EG|D3 B T(A>G)|{D}E2 G2 (GA)|G4:|
|:(Bc)|d3 e dc|{c}B3 A (B/A/G)|A2 B2 d2|{d}e4 (e/f/g)|(e<d) (c<B) (A<G)|E3 DB,D|{D}E2A,2 (A,B,)|A,4 (B,C)|
D3 B, TA,>G,|G3 A (G/A/B)|G3 G T(D>B,)|A,2 B,2 D2|{DE}=F4 TE>D|B,3 GED|{C}TB,2 (A,G,) (G,A,)|G,4:]

